X:1
T:[ID 1-90]
T:[ID 1-90]
T:Bezeichnung standardisiert: ..swinflusen Sesken; De melkboer; Rasmus Storm Marsch; ..swinflusen Sesker In dieser Quelle auch als: Stoss Wickel 6ken In dieser Quelle auch als: Wickel Sesken. In anderer Quelle: Cataljon - Hs. Bolhuis 1730 ca. (Anm. S. Wascher);  March - Hs. \"OVLA E-97/E-149 um 1750 (Anm. S. Wascher);  Nr. 13 March  - Rasmus Storm 1760 (Anm. S. Wascher);
T:Urheber unbekannt Erstbeleg: 1730 ca. (Datum in der schriftlichen Quelle) Datum in der hier transkribierten schriftlichen Quelle: vermutlich vor 1767
C:Urheber unbekannt
C:Erstbeleg: 1730 ca. (Datum in der schriftlichen Quelle)
C:Datum in der hier transkribierten schriftlichen Quelle: vermutlich vor 1767
L:1/8
M:2/4
K:G
V:1 treble 
V:1
 G2 DG | A2 DA | BA/B/ c/B/A/G/ | A/G/F/E/ D/E/F/D/ | G2 DG | A2 DA | BA/G/ F/G/A/F/ | G4 :: %8
 G/A/B/c/ dd | G/A/B/c/ dd | ed ef | g3 g/f/ | gd d2 | eA A2 | BA/B/ c/B/A/G/ | A/G/F/E/ D/E/F/D/ | %16
 G2 DG | A2 Dc | BA/G/ F/G/A/F/ | G2 G,2 :| %20

